X:1
T:Ständchen
T:Serenade No. 18 r1f (Ständchen)
T:Franz Schubert, arr. Liszt/Mertz/Thimsen
C:Franz Schubert, arr Johann Kaspar Mertz
%%score 1 2 { ( 3 5 6 ) | ( 4 7 8 ) }
L:1/8
Q:1/4=66
M:3/4
K:F
V:1 treble nm="Flute 1" snm="Fl. 1"
V:2 treble nm="Flute 2" snm="Fl. 2"
V:3 treble nm="Piano" snm="Pno."
V:5 treble 
V:6 treble 
V:4 bass 
V:7 bass 
V:8 bass 
V:1
"^rubato" z6 | z6 | z6 |[Q:1/4=62]"^rit." z6[Q:1/4=58][Q:1/4=56] || %4
[Q:1/4=66]"^a tempo""^A"!mp!"^espressivo il canto" (3(A_BA) !>!d3 A | (3(GAG) !>!d3 G | %6
 !>!A3 G (3(GFE) | F4 z2 |!pp! a3 g (3(gfe) | f6 | z6 | z6 | z6 | z4 z!p! F | E3 G (3(GFE) | F6 | %16
!mf!!<(! (3:2:2(A2 ^c !>!f3) e!<)! |!f!!>(! (3:2:2(d2 A !>!F3) D!>)! |!mp!{_Bc} (3(_BAB) !>!d3 B | %19
 A6 |!pp!{_Bc} (3(_BAB) !>!d3 B | A6 | z6 | z6 | z6 | z6 |!f! (3(G^FG) !>!=B3 E | ^F4 z2 | %28
!mf!"^espressivo" G4 (3:2:2(!>!B2 G | ^F3) (.F .F.F | G3) (.^C .E.G | ^F4) z2 | %32
!p! G4 (3:2:2(!>!=B2 G | ^F3) (.F .F.F | G3) (.^C .E.G |"^rit." ^F6-) | %36
[Q:1/4=62] F6[Q:1/4=58][Q:1/4=54] ||[Q:1/4=66]"^a tempo""^B" z2!p! (3(A_BA !>!d2-) | %38
 (3:2:2d2 z (3(GAG) !>!d2 | z G !>!A4- | (3:2:2A2 G (3(GFE) F2 | z2!mp! (3(A_BA) f2- | %42
 (3:2:2f2 A (3(GAG) e2- | (3:2:2e2 d c4- | (3:2:2c2 B (3(BAG) A2 | z2!p! (3:2:2(A2 ^c f2-) | %46
 (3:2:2f2 e (3:2:2(d2 A F)D | z2{Bc} (3(BAB) d2- | (3:2:2d2 (B A4) | z2{ga} (3(g^fg) _b2 | %50
 (3:2:2z2 (g =f4) | z2!p! (3:2:2(a2 ^c'!mp! f'2-) |!>(! (3:2:2f'2 e' (3:2:2(d'2 a ^f2-)!>)! | %53
!p! f2{=bc'} (3(=b_b=b) d'2- | (3:2:2d'2 =b a4 |!p!!>(! z2 (3g^fg (3:2:2=b2 g!>)! |!pp! ^f6 | z6 | %58
!p! A>!<(!A ^c>c e>!<)!!mf!e | a3!p! ^c'/d'/ (e'>d' |!<(! ^c'6) | %61
 (^f'3!<)!!f! e')!>(! (3(e'd'^c') | (=b>^c' d'2) =b2!>)! |!pp! ([g=b][gb][gb][gb][gb][gb]) | %64
 ([=Bd][Bd][Bd][Bd][Bd][Bd]) |"^a tempo" z2"G"{=bc'} (3(=b_b=b) d'2- | (3:2:2d'2 =b a4 | %67
 z2 (3(g^fg) (3:2:2=b2 (g |"^rit."[Q:1/4=62]!mp! ^f6-) |[Q:1/4=58] f6 || %70
"^C"[Q:1/4=66]"^a tempo""^marcato" z2!p! (3(a{/c'}_ba) d'2- | (3:2:2d'2 z!p! (3(g{/b}ag) d'2- | %72
 (3:2:2d'2 g a4- | (3:2:2a2 g (3(gfe) f2- | f2!p! (3(a{/c'}_ba) f'2- | %75
 (3:2:2f'2 z!p! (3(a{/c'}_ba) e'2- | (3:2:2e'2 d' c'4- | (3:2:2c'2 b (3(bag) a2 | %78
 z2 (3:2:2(a2 ^c' f'2- | (3:2:2f'2) e' (3:2:2(d'2 a f2) | z2{bc'} (3(bab) d'2- | %81
 (3:2:2d'2 _b a2- (3:2:2a2 z | z2{ga} (3(g^fg) _b2- | (3:2:2b2 g f3 z | z2 (3:2:2(a2 ^c' f'2- | %85
 (3:2:2f'2) e' (3:2:2((d'2 a ^f2)) | z2{=bc'} (3(=b_b=b) d'2- | (3:2:2d'2 =b a3 z | %88
!f!!f!"^energico""^energico"{e^f} (3((e^de)) (3((e'^d'e'!>(! g'>))(^c' | d'4-)!>)!!p!!p! d'2 | %90
!<(! A>A ^c>c e>!<)!!mf!e |!p! (3a^ga (3^c'=c'^c' e'2 | z6 | z2 z!mp!!mp! ((^c e>d | %94
 ^c4))!f!!f! E2 | D4 D z |!p! (e2 d2) =B z |!pp! d4 =B z | z2!p!{=b^c'} (3(=b_b=b) d'2- | %99
 (3:2:2d'2 =b a3 z |!f!"^energico"{e^f} (3(e^de) (3(e'^d'e' (3:2:2g'2) (^c' | d'6-) |!f!!>(! d'6 || %103
"^D" b6!>)! |!p! a6 | ^f4 A2 |!p! B2-!<(! B/(B/d/g/!<)!!mf! b/!>(!g/d/B/)!>)! |!p! A3 (.A .A.A | %108
 A3) (.A .A.A | A4) A2 |!p!"^dolcissimo"!<(! =B2- B/(B/d/g/!<)!!mf! =b/!>(!g/d/B/)!>)! | %111
!p! A3 (.A .A.A | A3) (.A .A.A |"^rit."[Q:1/4=62]!p! A6-) |!p![Q:1/4=58]!>(! A6-!>)! | %115
[Q:1/4=54]!pp! !fermata!A6 |] %116
V:2
 z6 | z6 | z6 | z6 ||"^espressivo il canto" z6 | z6 | z6 | z6 |!pp! ^c3 e (3(edc) | !breath!d6 | %10
!mp! (3(ABA) !>!f3 A | (3(GAG) !>!e3 d | !>!c3 B (3(BAG) | !breath!A4 z!p! d | c3 B (3(BAG) | A6 | %16
 z6 | z6 | z6 | z6 |!pp!{GA} (3G^FG !>!B3 E | !breath!=F6 |!mp!!<(! (3:2:2(A2 ^c !>!f3)!f! e!<)! | %23
!>(! (3:2:2(d2 A !>!^F3)!mp! D!>)! |{=Bc} (3(=B_B=B) !>!d3 =B | !breath!A6 |!f! (3(e^de) !>!g3 ^c | %27
 !breath!d4 z2 |!mf!"^espressivo" !courtesy!_B4 (3:2:2(!>!d2 B | A3) (.A .A.A | A3) (.A .A.A | %31
 !breath!A4) z2 |!p! =B4 (3:2:2((!>!d2 B | A3)) (.A .A.A | A3) (.A .A.A | A6-) | A6 || %37
 z2!p! (3(A!courtesy!_BA) !>!F2- | (3:2:2F2 z (3(GAG) !>!!breath!E2 | z E (!>!^C4 | %40
 (3:2:2D2) E (3(ED^C) !breath!D2 | z2!mp! (3(ABA) F2- | (3:2:2F2 A (3(GAG) (E2 | (3:2:2E2) A (E4 | %44
 (3:2:2F2) G (3(GFE) !breath!F2 | z2!p! (3:2:2((A2 ^c f2-)) | (3:2:2f2 e (3:2:2(d2 A F)!breath!D | %47
 z2{Bc} (3(BAB) d2- | (3:2:2d2 (B !breath!F4) | z2{ga} (3g^fg e2 | (3:2:2z2 (g !breath!A4) | %51
 z2!p!!<(! (3:2:2(a2 ^c'!<)!!mp! (a2 |!>(! (3:2:2a2)) ^c' (3:2:2(a2 a d2-!>)! | %53
!p! d2){=bc'} (3(=b_b=b) (g2 | (3:2:2a2) g ^f4 |!p!!>(! z2 (3^c=c=B (3:2:2^c2 e!>)! | %56
!pp! !breath!^f6 | z6 |!p! A>A ^c>c e>!mf!e | A3!p! ^c/d/ (e>d |!<(! !breath!^c6) | %61
 (^f3!<)!!f! e)!>(! (3(ed^c) | (^F>^c d2) !breath!=B2!>)! |!pp! ([=Be][Be][Be][Be][Be][Be]) | %64
 ([D^F][DF][DF][DF][DF]!breath![DF]) | z2{=Bc} (3(=B_B=B) d2- | (3:2:2d2 G !breath!^F4 | %67
 z2 (3(=B^fg) (3:2:2G2 (^c |!mp! d6-) | d6 ||!p! (3(A{/c}_BA) d2- (3:2:2d2 A | %71
 (3(G{/B}AG) d2- (3:2:2d2 G | A2- (3:2:2A2 G (3(GFE) | !breath!F4 z2 | %74
!mp! (3(A{/c}_BA) f2- (3:2:2f2 A | (3(G{/B}AG) e2- (3:2:2e2 d | c2- (3:2:2c2 B (3(BAG) | %77
 !breath!A6 | (3:2:2(A2 ^c f2-) (3:2:2f2 e | (3:2:2(d2 A F2-) (3:2:2F2 D | %80
{Bc} (3(BAB) d2- (3:2:2d2 B | A2- (3:2:2A2 !breath!z z2 |!f!{GA} (3G^FG B2- (3:2:2B2 G | %83
 !breath!=F3 z z2 | (3:2:2((A2 ^c f2-) (3:2:2f2) e | (3:2:2((d2 A ^F2-)) (3:2:2F2 D | %86
{=B^c} (3(=B_B=B d2- (3:2:2d2) B | A2- (3:2:2A2 !breath!z z2 |!f!{GA} (3G^FG (3((g^fg!>(! =b>))(e | %89
 !breath!^f6)!>)!!p!!p! |!<(! A>A ^c>c e>!<)!e!mf! |!p! (3a^ga (3^c'=c'^c' e'2 | %92
!f!!f! ((A3 ^c e>d | !breath!^c4)) z2 |!f!!f! ((^f3 e)) (3((ed^c)) | %95
 (3:2:2(=B2 ^c d2) !breath!B z |!p! (3:2:2((=b2 ^c' d'2)) b z | %97
!pp! (3:2:2(((=b2 ^c' d'2))) !breath!b z |!p!{=B^c} (3(=B_B=B) d2- (3:2:2d2 B | !breath!A3 z z2 | %100
!f!{GA} (3G^FG (3(g^fg (3:2:2=b2) (e | (^f6) |!f!!>(! F4- (3:2:2F2 D) || !breath!G6!>)! |!p! ^c6 | %105
 !breath!d4 ^F2 |!p! G2-!<(! G/(G/B/d/!<)!!mf! g/!>(!d/B/G/)!>)! |!p! ^F3 (.F .F.F | %108
 G3) (.^C .E.G | !breath!^F4) F2 |!p!"^dolcissimo"!<(! G2- G/(G/=B/d/!<)!!mf! g/!>(!d/B/G/)!>)! | %111
!p! ^F3 (.F .F.F | !breath!G3) (.^C .E.G |!p! ^F6- |!p!!>(! F6-!>)! |!pp! !fermata!F6) |] %116
V:3
!<(! z!p! .[A,D].[DF].[A,D].[DF].[A,D] | z .[B,D].[DF].[B,D].[DF].[B,D] | %2
 z!<)!!mp! .[B,D]!>(!.[DE].[B,D].[DE].[B,D] | z .[A,^C].[CE].[A,C].[CE]!>)!!pp!.[A,C] || %4
!mp! z .[F,A,D].[A,DF].[F,A,D].[A,DF].[F,A,D] | z .[E,G,D].[G,DE].[E,G,D].[G,DE].[E,G,D] | %6
 z .[E,G,A,^C].[G,A,CE].[E,G,A,C].[G,A,CE].[E,G,A,C] | z .[F,A,D].[A,DF].[F,A,D].[A,DF].[F,A,D] | %8
!pp! z .[A,^CE].[CEG].[A,CE].[CEG].[A,CE] | z .[A,D].[DF].[A,D].[DF].[A,D] | %10
!mp! z .[A,DF].[DF].[A,DF] .[DF].[A,DF] | z .[G,DE].[DE].[G,DE] .[DE].[G,DE] | %12
 z .[G,B,CE].[B,CEG].[G,B,CE] .[B,CEG].[G,B,CE] | z .[F,A,C].[A,CF].[F,A,C].[A,CF].[F,A,C] | %14
!p! z .[C,G,].[G,B,].[C,G,].[G,B,].[C,G,] | z .[C,F,].[F,A,].[C,F,] .[F,A,].[C,F,] | %16
!mf!!<(! z .[G,A,^C].[^CGA].[G,A,^C].[^CGA].[G,A,^C]!<)! | %17
!f!!>(! z .[F,A,D].[F,A,D].[D,F,A,].[F,A,D].[D,F,A,]!>)! | %18
!mp! z .[F,B,D].[B,DF].[F,B,D].[B,DF].[F,B,D] | z .[F,A,C].[A,CF].[F,A,C].[A,CF].[F,A,C] | %20
!pp! z .[G,C].[CE].[G,C].[CE].[G,C] | z .[F,A,C].[A,CF].[F,A,C].[A,CF].[F,A,C] | %22
!mp! z .[G,A,^C].[^CG].[G,A,^C].[^CG]!f!.[G,A,^C] | %23
 z .[^F,A,D].[F,A,D].[D,F,A,].[F,A,D]!mp!.[D,F,A,] | z .[G,=B,D].[B,DG].[G,B,D].[B,DG].[G,B,D] | %25
 z .[^F,A,D].[A,D^F].[F,A,D].[A,DF].[F,A,D] | z .[E,A,^C].[A,CG].[E,A,C].[A,CG].[E,A,C] | %27
 z .[D,^F,A,].[F,A,D].[D,F,A,].[F,A,D].[D,F,A,] | z .[D,G,_B,].[G,B,D].[D,G,B,].[G,B,D].[D,G,B,] | %29
 z .[D,^F,A,].[F,A,D].[D,F,A,] .[F,A,D].[D,F,A,] | z .[E,A,].[A,^C].[E,A,].[A,C].[E,A,] | %31
 z .[D,^F,A,].[F,A,D].[D,F,A,] .[F,A,D].[D,F,A,] | %32
!p! z .[D,G,=B,].[G,B,D].[D,G,B,].[G,B,D].[D,G,B,] | %33
 z .[D,^F,A,].[F,A,D].[D,F,A,] .[F,A,D].[D,F,A,] | z .[E,A,].[A,^C].[E,A,].[A,C].[E,A,] | %35
 z .[^F,A,].[A,D].[F,A,].[A,D].[F,A,] | z .[^F,A,] .[A,D].[F,A,] .[A,D]2 || %37
[K:bass]"^espressivo il canto""_quasi violoncello" (3A,B,A, D3 A, | (3G,A,G, D3 G, | %39
 (A,3 G,) (3(G,F,E,) | F,6 |!mf! (3A,B,A, F3 A, | (3G,A,G, E3 D | !>!C3 B, (3(B,A,G,) | %44
 A,2 z2 z!mp! F |"A"!<(! (3:2:2A,2 ^C!<)!!mf!!>(! F2- (3:2:2F2 E |"D" (3:2:2D2 A, F,3!>)!!mp! D, | %47
({B,C)} (3B,A,B, D2- (3:2:2D2 B, | A,6 |[K:treble] (3BAB d2- (3:2:2d2 B | A6 | %51
[K:bass]"A7"!p!!<(! (3:2:2A,2 ^C!<)!!mf!!>(! F2- (3:2:2F2 E |"Dm" (3:2:2D2 A, ^F,3!>)!!mp! D, | %53
({=B,^C)} (3B,^A,B, D2- (3:2:2D2 B, | A,6 | %55
[K:treble]!mp! (3[Gg][^F^f][Gg] [=B=b]2- (3:2:2[Bb]2 [Gg] | [^F^f]6 | %57
!p!"^energico"!<(! A>A ^c>c e>e!<)! |!mf! !arpeggio![A,EG]2 !arpeggio![EA^c]2 !arpeggio![Aga]2 | %59
 !arpeggio![G^ce]3 [eg] [ce]>d |!<(! A6 | [^F^c]4!<)!!f!!>(! [EF]2 | [D^F]>[DF] [DF]2- [DF] z!>)! | %63
!mp! (!arpeggio!.[G=Be]>.^c ((d2) B)) z |!p! (!arpeggio!.[^F=Bd]>.^c ((d2 B)) z) | %65
!mp! (3G^FG (3(g^f)g (3:2:2=b2 [G=B] | A3 z z2 | (3G^FG [E=B]2 [GB]>[G^c] | d6 | D6 || %70
!mp! z [A,D] [D=F][A,D] [DF][A,D] | z [G,D] [DE][G,D] [DE][G,D] | %72
 z [E,A,^C] [A,CE][E,A,C] [A,CE][G,A,C] | z [F,A,] [A,D][F,A,] [A,D][F,A,] | %74
 z [A,D] [DF][A,D] [DF][A,D] | z [G,D] [DE][G,D] [DE][G,D] | %76
 z [G,B,C] [B,CE][G,B,C] [B,CE][E,B,C] | z [F,A,C] [A,CF][F,A,C] [A,CF][F,A,C] | %78
 z [A,^CG] [CGA][A,CG] [CGA][A,CG] | z [A,D] [DF][A,D] [DF][A,D] | %80
 z [F,B,D] [B,DF][F,B,D] [B,DF][F,B,D] | z [F,A,C] [A,CF][F,A,C] [A,CF][F,A,C] | %82
 z [E,G,C] [G,CE][E,G,C] [G,CE][E,G,C] | z [F,A,C] [A,CF][F,A,C] [A,CF][F,A,C] | %84
 z [A,^CG] [CGA][A,CG] [CGA][A,CG] | z [A,D] [D^F][A,D] [DF][A,D] | %86
 z [G,=B,D] [B,DG][G,B,D] [B,DG][G,B,D] | z [^F,A,D]!mp! [A,D^F][F,A,D] [A,DF][F,A,D] | %88
 z [E,A,^C] [A,CG][E,A,C] [A,CG][E,A,C] | z [^F,A,D] [A,D^F][F,A,D] [A,DF][F,A,D] | %90
"^Animato il tempo\ncom agitazione"!p!!<(! A,>A, ^C>C E>E!<)! |!mf! (D2 ^C2) x2 | %92
 (!^!A,3 [EG])[EG]>[EG] | [EG][K:bass] (A,2 ^CED) |[K:treble] [^F^c]4 [EF]2 | %95
 [D^F]>[DF]!>(! ([D-F]2 [DF]) z!>)! | (3:2:2!arpeggio![G=Be]2 ^c z4 | %97
 (3:2:2!arpeggio![^F=Bd]2 ^c z4 |!p! z [G,=B,D][B,DG][G,B,D][B,DG][G,B,D] | z3/2 g/ ^f2 z2 | %100
!f! z [E,A,^C][A,CG][E,A,C][A,CG][E,A,C] | [d^f]6 |!f! !arpeggio![=FAd=fa]6 || !arpeggio![GBdeg]6 | %104
!p! !arpeggio![^CEA^ce]6 | !arpeggio![A,D^FAd]6 | z [D,G,B,][G,B,D][D,G,B,][G,B,D][D,G,B,] | %107
 z [D,^F,A,][F,A,D][D,F,A,][F,A,D][D,F,A,] | z [E,A,][A,^C][E,A,][A,C][E,A,] | %109
 z [D,^F,A,] [F,A,D][D,F,A,] [F,A,D][D,F,A,] | z [D,G,=B,] [G,B,D][D,G,B,] [G,B,D][D,G,B,] | %111
 z [D,^F,] [F,A,][D,F,] [F,A,][D,F,] | z [A,,E,] [E,G,][A,,E,] [E,G,][A,,E,] | %113
 (3z ^F,A (3^Fa^f (3a'fa | (3^FA^F, (3AF,A F,A |!pp! !arpeggio![^F,A,^FA]6 |] %116
V:4
"^Pedale à chaque Mesure"!p! [D,,D,]6 | [B,,,B,,]6 | [G,,,G,,]6 | [A,,,A,,]6 || [D,,D,]6 | %5
 [B,,,B,,]6 | [A,,,A,,]6 | [D,,D,]6 | [A,,,A,,]6 | [D,,D,]6 |!mp! [D,,D,]6 | [B,,,B,,]6 | %12
 [C,,C,]6 | [F,,,F,,]6 | C,,6 | F,,6 | [A,,,A,,]6 | [D,,D,]6 | [B,,,B,,]6 | [F,,,F,,]6 | [C,,C,]6 | %21
 [F,,,F,,]6 | [A,,,A,,]6 | [D,,D,]6 | [G,,,G,,]6 | [D,,D,]6 | [A,,,A,,]4 z2 | D,,4 z2 | D,,6 | %29
 D,,6 | [A,,,A,,]6 | D,,6 | D,,6 | D,,6 | [A,,,A,,]6 | D,,6 | D,,6 ||!mp! D,, =F,F[F,A,][DF]F, | %38
 B,, E,E[E,G,][DE]E, | A,, [E,^C][CE][E,C][CE][G,A,C] | D,, [F,A,D][F,A,][A,D][DF][A,D] | %41
 D, F,D[F,A,][DF]F, | B,, E,D[E,G,][DE][E,G,] | C, [E,G,][G,E][E,G,][G,E][E,DE] | %44
 F,, [F,A,C][A,CF][F,A,C][A,CF][_A,=B,] | A,, [^C,G,A,][G,A,^C][C,G,A,][G,A,C][C,G,A,] | %46
 D,, [D,F,][A,D][D,A,][A,D][F,A,] | B,,, [F,D][B,F][F,B,][B,F][F,B,D] | %48
 F,, [F,A,C][A,CF][F,A,C][A,CF][F,A,C] | [C,,C,] [E,C][G,E][E,C][G,E][E,C] | %50
 [F,,,F,,] [F,A,C][A,CF][F,A,C][A,CF][F,A,C] | [A,,,A,,] [^C,G,A,][G,A,^C][C,G,A,][G,A,C][C,G,A,] | %52
 [D,,D,] [D,^F,][A,D][D,A,][A,D][F,A,] | [G,,,G,,] [G,D][=B,G][G,B,][B,G][G,D] | %54
 [D,,D,] [^F,D][D^F][F,D][A,DF][F,A,D] | [A,,,A,,] [E,A,^C][A,CG][E,A,C][A,CG][E,A,C] | %56
 D,, [D,^F,A,][F,A,D][D,F,A,][F,A,D][D,F,A,] | [A,,,A,,] [E,A,^C][A,CG][E,A,C][A,CG][E,A,C] | %58
 [A,,,A,,] [E,A,][A,^C][E,A,][A,C][E,A,] | [A,,,A,,] [E,A,^C][A,CG][E,A,C][A,CG][E,A,C] | %60
 [A,,,A,,] [E,A,^C][A,CG][E,A,C][A,CG][E,A,C] | %61
 !wedge![^A,,^C,^F,^C] ^A,,, [A,,C,F,][F,C][A,,C,F,][F,C] | %62
 !wedge![=B,,^F,=B,] =B,,, [B,,D,F,][D,F,B,][B,,D,F,][D,F,B,] | %63
 !wedge!=B,,, [E,G,=B,][G,B,G][E,G,B,][G,B,G][E,G,B,] | %64
 !wedge!=B,,, [D,^F,=B,][F,B,^F][D,F,B,][F,B,F][D,F,B,] | G,, [G,=B,D][B,DG][G,B,D][B,DG][G,B,D] | %66
 D,, [D,^F,A,][F,A,D][D,F,A,][F,A,D][D,F,A,] | [A,,,A,,] [E,A,^C][A,CE][E,A,C][A,CE][E,A,C] | %68
 D,, [D,^F,A,][F,A,D][D,F,A,][F,A,D][D,F,A,] | D,, [D,^F,A,][F,A,D][D,F,A,][F,A,D][D,F,A,] || D,6 | %71
 B,,6 | A,,6 | D,,6 | D,6 | B,,6 | C,6 | F,,6 | A,,6 | D,6 | B,,6 | F,,6 | [C,,C,]6 | F,,6 | A,,6 | %85
 D,6 | G,,6 | D,,6 | [A,,,A,,]6 | [D,,D,]6 | %90
 [A,,,A,,] [^C,E,A,][A,,C,E,][C,E,A,][B,,C,E,][C,E,A,] |!<(! A,,>A,, ^C,>C, E,>!mf!E,!<)! | %92
!mp! [D,E,]!>(! E,2 x/ x/ x2!>)! |!p! !arpeggio![A,,E,G,^C] (!>!A,,2 ^C,)E,D, | %94
 !wedge![^A,,^C,^F,^C] ^A,,, [B,,C,F,][F,C][A,,C,F,][F,C] | %95
 !wedge![=B,,^F,=B,] =B,,, [B,,D,F,][D,F,B,][B,,D,F,][D,F,B,] | %96
!mp! !wedge!=B,,, [E,G,=B,][G,B,G][E,G,B,][G,B,G][E,G,B,] | %97
!pp! !wedge!=B,,, [D,^F,=B,][F,B,^F][D,F,B,][F,B,F][D,F,B,] |!p! G,,6 | %99
 z [^F,A,D]!mp![A,D^F][F,A,D][A,DF][F,A,D] |!f! [A,,,A,,]6 | z2 [D,A,D^F][^F,A,D][A,DF][F,A,D] | %102
 z2 [D,A,D=F][F,A,D][A,F][F,A,] || z2 [B,,D,G,D][D,G,B,][G,D][D,F,] | %104
 z2 [A,,E,A,E][E,A,^C][A,E][E,A,] | z2 [D,A,D^F][^F,A,D][A,DF][F,A,D] | D,,6 | D,,6 | [A,,,A,,]6 | %109
 D,,6 | D,,6 | D,,6 | A,,,6 | (3:2:2D,,2 A,, (3D,A,D[K:treble] (3AdA | %114
[K:bass] (3DA,D, (3A,,D,,A,, D,,A,, | !arpeggio![D,,A,,D,]6 |] %116
V:5
 x6 | x6 | x6 | x6 || x6 | x6 | x6 | x6 | x6 | x6 | x6 | x6 | x6 | x6 | x6 | x6 | x6 | x6 | x6 | %19
 x6 | x6 | x6 | x6 | x6 | x6 | x6 | x6 | x6 | x6 | x6 | x6 | x6 | x6 | x6 | x6 | x6 | x6 || %37
[K:bass] x6 | x6 | x6 | x6 | x6 | x6 | x6 | x6 | x6 | x6 | x6 | x6 |[K:treble] x6 | x6 | %51
[K:bass] x6 | x6 | x6 | x6 |[K:treble] x6 | x6 | x6 | x6 | x6 | x6 | x6 | x6 | x6 | x6 | x2 d4 | %66
 x6 | x6 | x6 | x6 || x6 | x6 | x6 | x6 | x6 | x6 | x6 | x6 | x6 | x6 | x6 | x6 | x6 | x6 | x6 | %85
 x6 | x6 | x6 | x6 | x6 | x [^CE] x [EG] x G | [EG] [EG]2 [EG]2 [G,E] | [DE] E2 x x2 | %93
 x[K:bass] [E,G,] [E,G,][E,G,]G,[E,G,] |[K:treble] x6 | x6 | x6 | x6 | x6 | x6 | x6 | x6 | x6 || %103
 x6 | x6 | x6 | x6 | x6 | x6 | x6 | x6 | x6 | x6 | x6 | x6 | x6 |] %116
V:6
 x6 | x6 | x6 | x6 || x6 | x6 | x6 | x6 | x6 | x6 | x6 | x6 | x6 | x6 | x6 | x6 | x6 | x6 | x6 | %19
 x6 | x6 | x6 | x6 | x6 | x6 | x6 | x6 | x6 | x6 | x6 | x6 | x6 | x6 | x6 | x6 | x6 | x6 || %37
[K:bass] x6 | x6 | x6 | x6 | x6 | x6 | x6 | x6 | x6 | x6 | x6 | x6 |[K:treble] x6 | x6 | %51
[K:bass] x6 | x6 | x6 | x6 |[K:treble] x6 | x6 | x6 | x6 | x6 | x6 | x6 | x6 | x6 | x6 | x6 | x6 | %67
 x6 | x6 | x6 || x6 | x6 | x6 | x6 | x6 | x6 | x6 | x6 | x6 | x6 | x6 | x6 | x6 | x6 | x6 | x6 | %86
 x6 | x6 | x6 | x6 | x6 | x6 | x D^C x x2 | x6[K:bass] |[K:treble] x6 | x6 | x6 | x6 | x6 | x6 | %100
 x6 | x6 | x6 || x6 | x6 | x6 | x6 | x6 | x6 | x6 | x6 | x6 | x6 | x6 | x6 | x6 |] %116
V:7
 x6 | x6 | x6 | x6 || x6 | x6 | x6 | x6 | x6 | x6 | x6 | x6 | x6 | x6 | x6 | x6 | x6 | x6 | x6 | %19
 x6 | x6 | x6 | x6 | x6 | x6 | x6 | x6 | x6 | x6 | x6 | x6 | x6 | x6 | x6 | x6 | x6 | x6 || x6 | %38
 x6 | x6 | x6 | x6 | x6 | x6 | x6 | x6 | x6 | x6 | x6 | x6 | x6 | x6 | x6 | x6 | x6 | x6 | x6 | %57
 x6 | x6 | x6 | x6 | x6 | x6 | x6 | x6 | x6 | x6 | x6 | x6 | x6 || x6 | x6 | x6 | x6 | x6 | x6 | %76
 x6 | x6 | x6 | x6 | x6 | x6 | x6 | x6 | x6 | x6 | x6 | x6 | x6 | x6 | x6 | x6 | %92
 !^![A,,G,]3 ([E,G,^C]B,,>)[E,G,D] | x!mp! A,,,3 B,,,2 | x6 | x6 | x6 | x6 | x6 | D,,6 | x6 | %101
 D,,6 | D,,6 || B,,,6 | A,,,6 | D,,6 | x6 | x6 | x6 | x6 | x6 | x6 | x6 | x4[K:treble] x2 | %114
[K:bass] x6 | x6 |] %116
V:8
 x6 | x6 | x6 | x6 || x6 | x6 | x6 | x6 | x6 | x6 | x6 | x6 | x6 | x6 | x6 | x6 | x6 | x6 | x6 | %19
 x6 | x6 | x6 | x6 | x6 | x6 | x6 | x6 | x6 | x6 | x6 | x6 | x6 | x6 | x6 | x6 | x6 | x6 || x6 | %38
 x6 | x6 | x6 | x6 | x6 | x6 | x6 | x6 | x6 | x6 | x6 | x6 | x6 | x6 | x6 | x6 | x6 | x6 | x6 | %57
 x6 | x6 | x6 | x6 | x6 | x6 | x6 | x6 | x6 | x6 | x6 | x6 | x6 || x6 | x6 | x6 | x6 | x6 | x6 | %76
 x6 | x6 | x6 | x6 | x6 | x6 | x6 | x6 | x6 | x6 | x6 | x6 | x6 | x6 | x6 | x6 | x D,^C, x x2 | %93
 x6 | x6 | x6 | x6 | x6 | x6 | x6 | x6 | x6 | x6 || x6 | x6 | x6 | x6 | x6 | x6 | x6 | x6 | x6 | %112
 x6 | x4[K:treble] x2 |[K:bass] x6 | x6 |] %116

